X: 3
T: The Virginia
R: reel
M: 4/4
L: 1/8
K: Dmaj
|:"G"DBBA B/B/B BA|BAdB "A"AFEF|"D"DF F/F/F / A2 AB|AFBF AFEF|
"G"DBBA B/B/B BA|BAdB "A"ABde|"D"f/f/f fe defe|dBAF BE E2:|
|:"D"defe d/d/d dA|BAFA dAFA|dffe defg|afbf afeg|
"Bm"f/f/f fd "A"efdB|"D"AF F/F/F ABde|"G"f/f/f fe defe|"A"dBAF BE E2:|


Tune 812	Setting 25212

